X: 37501
T: Sligo Maid, The
R: reel
M: 4/4
K: Adorian
dB||A2BA Bdef|gedB AE ~E2|G2 BG dGBG|D/D/EGA BAdB|
A2BA Bde~g-|gedB A ~E2 D|~B2BG AEGE|DEGA BAAG|
A2BA Bdef|g/g/edB AE ~E2|G2 BG dGBG|DG~G2 DGBG|
A2BA Bdef|g/g/edB AE ~E2|G2 BG dGBG|D/D/EGA BAA2|
eaag ~a2ga|b/b/gae gedg|eg ~g2 gage|dega bgag|
eaag ~a2ga|b/b/gae gedg|eg g/g/g edBd|d/d/d gd BAA2|
a/a/a gb a2 ga|bgag ~gedg|eg ~g2 ~g2 ~g2|dg~g2 dgbg|
eaag ~a2ga|b/b/gae gedg|eg g/g/g edBd|d/d/d gd BAGE||

